X: 2
T: Pink Rose Polka
M: C
L: 1/8
G: Angigonish Polkas
K: A
AB|"A"c2c2CAfd|"Bm"dcded2ba|"E7"g3gge^de|feceA2"E7"EA|"A"c2c2cAfe|"Bm"dcded2ba|
|1"E7"g2g2gefg|"A"aaa:||2"E7"g2BcedcB|"A"A2A2A2||(3efg|"A"a2e2c2A2|"D"d2F2F2BA|"E"G2e2edcd|"E7"f2e2c2e2|
"A"a2e2c2A2|"D"d2F2FAGF|1"E7"EGBfe2G2|"A"A2A2A2:||2"E7"EGBe gefg|"A"a2a2a2|]
